!!!OTL: Was wir lieben.
!!!OTL-incipit: HOCH SOLL EWIG LEBEN
!!!COM: A. Methfessel
!!!ARE: Europa, Mitteleuropa, Deutschland
!!!SCT: F0710
!!!TXL: @@DE
!!!YEM: Copyright 1995, estate of Helmut Schaffrath.
**kern	**text
*ICvox	*
*clefG2	*
*M6/8	*
*k[b-e-]	*
*B-:	*
=1	=1
!LO:TX:a:t=Heiter.	!
!LO:TX:a:t=Für 4 Männerſtimmen; einſtimmig mit Begleitung.	!
!LO:TX:a:t=P:only the highest voice encoded:problem	!
{4b-/	1._Hoch
8b-/	ſoll
4dd	e-
8dd	-wig
=2	=2
4.ff^/	le-
4dd/	-ben,
8r}	.
=3	=3
{4gg/	Wonne
8gg/	.
8ff/L	ſtets
8ddJ	.
8b-/	um-
=4	=4
(>4ff^/	-ſchwe-
8ee-/)	.
4dd/	-ben,
8r}	.
=5	=5
{4dd/	was
8dd/	uns
16ddqq	.
8cc#/L	füllt
8bnJ	.
8cc#/	mit
=6	=6
4dd/	ſü-
8dd/	-ßen
4ee-/	Trieben,
8ee-/}	.
=7	=7
{(>4.dd/	was
8ff/L	.
8ee-J)	.
8cc/	wir
=8	=8
(>4.b-^/	lie-
4dd/	.
8cc/)	.
=9	=9
4b-/	-ben!
8r	.
4r	.
8r}	.
==	==
!!!AGN: Geselligkeits -, Trink - Lied
!!!ONB: ESAC (Essen Associative Code) Database: FINK
!!!AMT: compound duple
!!!AIN: vox
!!!EED: Helmut Schaffrath
!!!EEV: 1.0
!!!RDF**kern: > = above
!!!GTL: Liedertafel- und Gesellschaftslieder
!!!source: Musikalischer Hausschatz der Deutschen. Eine Sammlung von über 1000 Liedern und Gesängen mit Singstimmen und Klavierbegleitung. Leipzig, Litterarisches Verlags-Haus.
!!!page: 482
!!!URL-scan: https://www.digitale-sammlungen.de/en/view/bsb11144622?page=433
!!!ENC: Anna Maria Matuszewska
!!!EEV: 2024/08/05
*-	*-
